svgs/solid/user-headset.svg

<svg xmlns="http://www.w3.org/2000/svg" viewBox="0 0 448 512"><!-- Font Awesome Pro 6.0.0-alpha2 by @fontawesome - https://fontawesome.com License - https://fontawesome.com/license (Commercial License) --><path d="M48 224C56.875 224 64 216.875 64 208V192C64 103.75 135.75 32 224 32S384 103.75 384 192V208C384 252.125 348.125 288 304 288H272C272 270.375 257.625 256 240 256H208C190.375 256 176 270.375 176 288S190.375 320 208 320H304C365.875 319.875 415.875 269.875 416 208V192C416 86.125 329.875 0 224 0S32 86.125 32 192V208C32 216.875 39.125 224 48 224ZM208 224H240C262.875 224 284 236.25 295.375 256H304C330.5 256 352 234.5 352 208V192C352 121.25 294.75 64 224 64S96 121.25 96 192C96 232.375 115.125 268 144.375 291.5C144.25 290.25 144 289.25 144 288C144 252.625 172.625 224 208 224ZM314.664 352H133.336C59.699 352 0 411.695 0 485.332C0 500.059 11.941 512 26.664 512H421.336C436.059 512 448 500.059 448 485.332C448 411.695 388.307 352 314.664 352Z"/></svg>

<svg xmlns="http://www.w3.org/2000/svg" viewBox="0 0 448 512"><!-- Font Awesome Pro 5.15.1 by @fontawesome - https://fontawesome.com License - https://fontawesome.com/license (Commercial License) --><path d="M320 352h-23.1a174.08 174.08 0 0 1-145.8 0H128A128 128 0 0 0 0 480a32 32 0 0 0 32 32h384a32 32 0 0 0 32-32 128 128 0 0 0-128-128zM48 224a16 16 0 0 0 16-16v-16c0-88.22 71.78-160 160-160s160 71.78 160 160v16a80.09 80.09 0 0 1-80 80h-32a32 32 0 0 0-32-32h-32a32 32 0 0 0 0 64h96a112.14 112.14 0 0 0 112-112v-16C416 86.13 329.87 0 224 0S32 86.13 32 192v16a16 16 0 0 0 16 16zm160 0h32a64 64 0 0 1 55.41 32H304a48.05 48.05 0 0 0 48-48v-16a128 128 0 0 0-256 0c0 40.42 19.1 76 48.35 99.47-.06-1.17-.35-2.28-.35-3.47a64.07 64.07 0 0 1 64-64z"/></svg>
